images/services/credit_man.svg

<svg width="156" height="188" viewBox="0 0 156 188" fill="none" xmlns="http://www.w3.org/2000/svg">
<path d="M141.25 83.627C149.396 83.627 156 77.0232 156 68.877C156 60.7308 149.396 54.127 141.25 54.127C133.104 54.127 126.5 60.7308 126.5 68.877C126.5 77.0232 133.104 83.627 141.25 83.627Z" fill="white"/>
<path d="M89.1131 139.544L82.0391 157.419L59.2151 172.336C57.0471 173.568 55.5811 175.895 55.5811 178.566C55.5811 182.524 58.7891 185.733 62.7481 185.733C64.2831 185.733 65.7031 185.246 66.8691 184.423C70.6301 182.052 89.2201 170.339 92.3641 168.543C95.8641 166.543 96.4891 163.418 96.4891 163.418L101.364 147.418C101.364 147.418 101.364 147.418 95.6141 144.793C89.8641 142.168 89.1131 139.544 89.1131 139.544Z" fill="white"/>
<path d="M139.321 141.462C139.321 141.462 138.163 137.628 134.742 136.295C131.321 134.962 116.655 128.545 116.655 128.545L132.071 102.961C132.071 102.961 135.905 93.961 131.738 89.544C127.571 85.127 117.988 79.794 117.988 79.794H110.467L126.266 52.993C129.62 47.307 127.709 39.912 122.024 36.561L72.6328 7.447C66.9468 4.095 59.5538 6.005 56.2018 11.691L9.14382 91.519C5.79282 97.204 7.70182 104.599 13.3878 107.951L62.7778 137.064C68.4638 140.416 75.8588 138.505 79.2098 132.822L102.144 93.919H110.24L95.4898 120.128C95.4898 120.128 90.3558 129.342 95.1558 134.378C99.3648 138.794 107.823 141.294 107.823 141.294L125.073 147.795L130.174 179.086L130.183 179.085C130.732 182.498 133.682 185.108 137.25 185.108C141.208 185.108 144.416 181.899 144.416 177.941C144.416 177.752 144.402 177.566 144.388 177.381L144.416 177.377L139.321 141.462ZM17.9578 100.198C16.5568 99.372 16.0708 97.49 16.8968 96.09L63.9558 16.261C64.7818 14.86 66.6628 14.373 68.0628 15.199L79.5838 21.991L29.4798 106.989L17.9578 100.198ZM71.4558 128.252C70.6298 129.652 68.7488 130.139 67.3488 129.313L37.2328 111.559L87.3398 26.563L117.453 44.316C118.855 45.142 119.34 47.023 118.515 48.423L100.022 79.795H91.2388L71.3228 94.222C70.8808 94.474 70.4698 94.775 70.0928 95.113L70.0618 95.135L70.0638 95.138C68.6188 96.45 67.7058 98.336 67.7058 100.442C67.7058 104.4 70.9138 107.609 74.8728 107.609C76.4208 107.609 77.8508 107.113 79.0218 106.278L79.0238 106.281L79.0948 106.223C79.2768 106.09 79.4508 105.95 79.6188 105.8L89.2788 98.016L71.4558 128.252Z" fill="white"/>
<path d="M49.2189 5.94296L2.16091 85.772C-1.19009 91.457 0.718907 98.852 6.40491 102.204L55.7949 131.317C61.4809 134.669 68.8759 132.758 72.2269 127.075L119.284 47.246C122.638 41.56 120.727 34.165 115.042 30.814L65.6499 1.69996C59.9649 -1.65204 52.5709 0.257962 49.2189 5.94296ZM9.91391 90.343L56.9729 10.514C57.7989 9.11296 59.6799 8.62596 61.0799 9.45196L72.6009 16.244L22.4959 101.242L10.9739 94.451C9.57391 93.625 9.08791 91.743 9.91391 90.343ZM111.531 42.676L64.4719 122.505C63.6459 123.905 61.7649 124.392 60.3649 123.566L30.2489 105.812L80.3549 20.816L110.468 38.569C111.871 39.394 112.355 41.275 111.531 42.676Z" fill="#F0C42E"/>
<path d="M135.25 77.833C143.396 77.833 150 71.2292 150 63.083C150 54.9368 143.396 48.333 135.25 48.333C127.104 48.333 120.5 54.9368 120.5 63.083C120.5 71.2292 127.104 77.833 135.25 77.833Z" fill="#3A3A3A"/>
<path d="M81.8748 133.75L74.8008 151.625L51.9758 166.542C49.8078 167.774 48.3418 170.101 48.3418 172.772C48.3418 176.73 51.5498 179.939 55.5088 179.939C57.0438 179.939 58.4638 179.452 59.6298 178.629C63.3908 176.258 81.9808 164.545 85.1248 162.749C88.6248 160.749 89.2498 157.624 89.2498 157.624L94.1248 141.624C94.1248 141.624 94.1248 141.624 88.3748 138.999C82.6248 136.374 81.8748 133.75 81.8748 133.75Z" fill="#3A3A3A"/>
<path d="M132.083 135.668C132.083 135.668 130.925 131.834 127.504 130.501C124.083 129.168 109.417 122.751 109.417 122.751L124.833 97.167C124.833 97.167 128.667 88.167 124.5 83.75C120.333 79.333 110.75 74 110.75 74H83.9998L64.0848 88.427C63.6428 88.68 63.2318 88.98 62.8548 89.318L62.8238 89.34L62.8258 89.343C61.3808 90.654 60.4678 92.541 60.4678 94.646C60.4678 98.604 63.6758 101.813 67.6348 101.813C69.1828 101.813 70.6128 101.317 71.7838 100.482L71.7858 100.485L71.8568 100.427C72.0388 100.294 72.2138 100.154 72.3818 100.004L87.1248 88.123H103L88.2498 114.332C88.2498 114.332 83.1158 123.546 87.9158 128.582C92.1248 132.998 100.583 135.498 100.583 135.498L117.833 141.999L122.934 173.29L122.943 173.289C123.492 176.702 126.442 179.312 130.01 179.312C133.968 179.312 137.176 176.103 137.176 172.145C137.176 171.956 137.162 171.77 137.148 171.585L137.176 171.581L132.083 135.668Z" fill="#3A3A3A"/>
</svg>

<svg width="156" height="188" fill="none" xmlns="http://www.w3.org/2000/svg"><path d="M141.25 83.63a14.75 14.75 0 1 0 0-29.5 14.75 14.75 0 0 0 0 29.5ZM89.11 139.54l-7.07 17.88-22.82 14.92a7.16 7.16 0 1 0 7.65 12.08c3.76-2.37 22.35-14.08 25.5-15.88 3.5-2 4.12-5.12 4.12-5.12l4.87-16-5.75-2.63c-5.75-2.62-6.5-5.25-6.5-5.25Z" fill="#fff"/><path d="M139.32 141.46s-1.16-3.83-4.58-5.17c-3.42-1.33-18.09-7.75-18.09-7.75l15.42-25.58s3.84-9-.33-13.42c-4.17-4.41-13.75-9.75-13.75-9.75h-7.52l15.8-26.8a12.03 12.03 0 0 0-4.25-16.43L72.63 7.45a12.03 12.03 0 0 0-16.43 4.24L9.14 91.52a12.04 12.04 0 0 0 4.25 16.43l49.39 29.11a12.04 12.04 0 0 0 16.43-4.24l22.93-38.9h8.1l-14.75 26.2s-5.13 9.22-.33 14.26c4.2 4.41 12.66 6.91 12.66 6.91l17.25 6.5 5.1 31.3h.01a7.16 7.16 0 0 0 14.2-1.7l.04-.01-5.1-35.92ZM17.96 100.2a3.04 3.04 0 0 1-1.06-4.11l47.06-79.83a3.04 3.04 0 0 1 4.1-1.06L79.58 22l-50.1 84.99-11.52-6.8Zm53.5 28.05a3.04 3.04 0 0 1-4.11 1.06l-30.12-17.75 50.11-85 30.11 17.76c1.4.82 1.89 2.7 1.06 4.1L100.03 79.8h-8.78L71.32 94.22c-.44.25-.85.56-1.23.9l-.03.02a7.17 7.17 0 0 0 8.96 11.14l.07-.06c.19-.13.36-.27.53-.42l9.66-7.78-17.82 30.23Z" fill="#fff"/><path d="M49.22 5.94 2.16 85.77A12.04 12.04 0 0 0 6.4 102.2l49.4 29.12a12.04 12.04 0 0 0 16.43-4.24l47.05-79.83a12.03 12.03 0 0 0-4.24-16.44L65.65 1.7a12.04 12.04 0 0 0-16.43 4.24Zm-39.3 84.4 47.05-79.83a3.04 3.04 0 0 1 4.11-1.06l11.52 6.8-50.1 85-11.53-6.8a3.04 3.04 0 0 1-1.06-4.1Zm101.61-47.66L64.47 122.5a3.04 3.04 0 0 1-4.1 1.07L30.24 105.8l50.1-85 30.12 17.76c1.4.82 1.89 2.7 1.06 4.1Z" fill="#F0C42E"/><path d="M135.25 77.83a14.75 14.75 0 1 0 0-29.5 14.75 14.75 0 0 0 0 29.5ZM81.87 133.75l-7.07 17.88-22.82 14.91a7.16 7.16 0 1 0 7.65 12.09c3.76-2.37 22.35-14.09 25.5-15.88 3.5-2 4.12-5.13 4.12-5.13l4.87-16-5.75-2.62c-5.75-2.63-6.5-5.25-6.5-5.25ZM132.08 135.67s-1.16-3.84-4.58-5.17-18.08-7.75-18.08-7.75l15.41-25.58s3.84-9-.33-13.42S110.75 74 110.75 74H84L64.08 88.43a7.2 7.2 0 0 0-1.23.89l-.03.02a7.17 7.17 0 0 0 8.96 11.14l.08-.05.52-.43 14.74-11.88H103l-14.75 26.21s-5.13 9.22-.33 14.25c4.2 4.42 12.66 6.92 12.66 6.92l17.25 6.5 5.1 31.29h.01a7.16 7.16 0 0 0 14.2-1.7h.04l-5.1-35.92Z" fill="#3A3A3A"/></svg>
